X:343
T:The Imperial Measure
C:Colin Hume
N:For the dance by Anne Higley (now Anne Barlow)
L:1/4
M:2/2
S:Colin Hume's website,  colinhume.com  - chords can also be printed below the stave.
Q:1/2=96
K:G
P:A1
[| B/c/ | "G"d2 "/"BA | "Em"G3/A/ "/"BA/B/ | "Am"c2 "/"AG | "D7"F2- "/"FE/F/ |\
"G"GD "D/F#"AD | "Em"BG "D7"cA | "G"dG "C"e/d/c/B/ | "D"A2- "D7"A B/c/ |
P:A2
"G"d2 "/"BA | "Em"G3/A/ "/"BA/B/ | "Am"c2 "/"AG | "D7"F2- "/"FE/F/ |\
"G"GD "D/F#"AD | "Em"BG "D7"cA | "G/B"d "C"G/A/ "D7"F3/G/ | "G"G2- "/"G ||
K:Gm
P:B
|: B/c/ | "Gm"dd "/"dc/B/ | "F"cF- "/"FG/A/ | "Eb"BB "/"BA/G/ | "D"A2- "/"AG/A/ |\
"Gm"BG "D7/A"cA | "Gm/Bb"dB "Cm"ec | "Gm/D"dc/B/ "D7"A3/G/ | "Gm"G2- "/"G :|
